_site/images/registration/error-image.svg

<svg fill="none" height="270" viewBox="0 0 373 270" width="373" xmlns="http://www.w3.org/2000/svg" xmlns:xlink="http://www.w3.org/1999/xlink"><filter id="a" color-interpolation-filters="sRGB" filterUnits="userSpaceOnUse" height="270" width="329" x="10" y="0"><feFlood flood-opacity="0" result="BackgroundImageFix"/><feColorMatrix in="SourceAlpha" type="matrix" values="0 0 0 0 0 0 0 0 0 0 0 0 0 0 0 0 0 0 127 0"/><feOffset dy="15"/><feGaussianBlur stdDeviation="22.5"/><feColorMatrix type="matrix" values="0 0 0 0 0.719566 0 0 0 0 0.748166 0 0 0 0 0.795833 0 0 0 0.25 0"/><feBlend in2="BackgroundImageFix" mode="normal" result="effect1_dropShadow"/><feBlend in="SourceGraphic" in2="effect1_dropShadow" mode="normal" result="shape"/></filter><filter id="b" color-interpolation-filters="sRGB" filterUnits="userSpaceOnUse" height="138.538" width="138.538" x="234" y="105"><feFlood flood-opacity="0" result="BackgroundImageFix"/><feColorMatrix in="SourceAlpha" type="matrix" values="0 0 0 0 0 0 0 0 0 0 0 0 0 0 0 0 0 0 127 0"/><feOffset dx="9" dy="20"/><feGaussianBlur stdDeviation="20"/><feColorMatrix type="matrix" values="0 0 0 0 0 0 0 0 0 0.351917 0 0 0 0 0.429167 0 0 0 0.25 0"/><feBlend in2="BackgroundImageFix" mode="normal" result="effect1_dropShadow"/><feBlend in="SourceGraphic" in2="effect1_dropShadow" mode="normal" result="shape"/></filter><filter id="c" color-interpolation-filters="sRGB" filterUnits="userSpaceOnUse" height="128.357" width="128.357" x="0" y="43"><feFlood flood-opacity="0" result="BackgroundImageFix"/><feColorMatrix in="SourceAlpha" type="matrix" values="0 0 0 0 0 0 0 0 0 0 0 0 0 0 0 0 0 0 127 0"/><feOffset dx="9" dy="20"/><feGaussianBlur stdDeviation="20"/><feColorMatrix type="matrix" values="0 0 0 0 0 0 0 0 0 0.351917 0 0 0 0 0.429167 0 0 0 0.25 0"/><feBlend in2="BackgroundImageFix" mode="normal" result="effect1_dropShadow"/><feBlend in="SourceGraphic" in2="effect1_dropShadow" mode="normal" result="shape"/></filter><g filter="url(#a)"><rect fill="#fff" height="180" rx="30" width="239" x="55" y="30"/></g><rect fill="#ff7c74" height="17" rx="8.5" transform="matrix(-1 0 0 -1 620 222)" width="30" x="310" y="111"/><rect fill="#ffc634" height="17" rx="8.5" transform="matrix(-1 0 0 -1 76 274)" width="30" x="38" y="137"/><rect fill="#ffc634" height="17" rx="8.5" transform="matrix(-1 0 0 -1 288 438)" width="24" x="144" y="219"/><g filter="url(#b)"><rect fill="#ffc634" height="58.5379" rx="20" width="58.5379" x="265" y="125"/></g><path clip-rule="evenodd" d="m294.5 139c-1.381 0-2.5 1.119-2.5 2.5v15c0 1.381 1.119 2.5 2.5 2.5s2.5-1.119 2.5-2.5v-15c0-1.381-1.119-2.5-2.5-2.5zm0 23c-1.933 0-3.5 1.567-3.5 3.5s1.567 3.5 3.5 3.5 3.5-1.567 3.5-3.5-1.567-3.5-3.5-3.5z" fill="#fcfdfd" fill-rule="evenodd"/><g filter="url(#c)"><rect fill="#ff7c74" height="48.3574" rx="17" width="48.3574" x="31" y="63"/></g><path d="m55 99c-6.6171 0-12-5.3829-12-12s5.3829-12 12-12 12 5.3829 12 12-5.3829 12-12 12zm4.4191-15.0049c.3909-.3912.3909-1.0231 0-1.4142-.195-.195-.451-.2929-.7072-.2929-.256 0-.5119.0979-.707.2929l-3.0049 3.0052-3.0049-3.0052c-.1951-.195-.451-.2929-.707-.2929-.2562 0-.5122.0979-.7072.2929-.3909.3911-.3909 1.023 0 1.4142l3.0052 3.0049-3.0052 3.0049c-.3909.3912-.3909 1.0231 0 1.4142.3911.3909 1.023.3909 1.4142 0l3.0049-3.0052 3.0049 3.0052c.3912.3909 1.0231.3909 1.4142 0 .3909-.3911.3909-1.023 0-1.4142l-3.0052-3.0049z" fill="#fdfefe"/><path clip-rule="evenodd" d="m143 90c-3.314 0-6 2.6864-6 6v18h-12v-18c0-3.3136-2.686-6-6-6s-6 2.6864-6 6v24c0 3.314 2.686 6 6 6h18v18c0 3.314 2.686 6 6 6s6-2.686 6-6v-48c0-3.314-2.686-6-6-6zm88.001 0c-3.314 0-6 2.6864-6 6v18h-12v-18c0-3.3136-2.686-6-6-6s-6 2.6864-6 6v24c0 3.314 2.686 6 6 6h18v18c0 3.314 2.686 6 6 6s6-2.686 6-6v-48c0-3.314-2.686-6-6-6zm-68.001 0h24c3.314 0 6 2.686 6 6v48c0 3.314-2.686 6-6 6h-24c-3.313 0-6-2.686-6-6v-48c0-3.3136 2.687-6 6-6zm6 48h12v-36h-12z" fill="#ff7c74" fill-rule="evenodd"/></svg>

<svg width="373" height="270" viewBox="0 0 373 270" fill="none" xmlns="http://www.w3.org/2000/svg">
<g filter="url(#filter0_d)">
<rect x="55" y="30" width="239" height="180" rx="30" fill="white"/>
</g>
<rect x="310" y="111" width="30" height="17" rx="8.5" transform="rotate(-180 310 111)" fill="#FF7C74"/>
<rect x="38" y="137" width="30" height="17" rx="8.5" transform="rotate(-180 38 137)" fill="#FFC634"/>
<rect x="144" y="219" width="24" height="17" rx="8.5" transform="rotate(-180 144 219)" fill="#FFC634"/>
<g filter="url(#filter1_d)">
<rect x="265" y="125" width="58.5379" height="58.5379" rx="20" fill="#FFC634"/>
</g>
<path fill-rule="evenodd" clip-rule="evenodd" d="M294.5 139C293.119 139 292 140.119 292 141.5V156.5C292 157.881 293.119 159 294.5 159C295.881 159 297 157.881 297 156.5V141.5C297 140.119 295.881 139 294.5 139ZM294.5 162C292.567 162 291 163.567 291 165.5C291 167.433 292.567 169 294.5 169C296.433 169 298 167.433 298 165.5C298 163.567 296.433 162 294.5 162Z" fill="#FCFDFD"/>
<g filter="url(#filter2_d)">
<rect x="31" y="63" width="48.3574" height="48.3574" rx="17" fill="#FF7C74"/>
</g>
<path d="M55 99C48.3829 99 43 93.6171 43 87C43 80.3829 48.3829 75 55 75C61.6171 75 67 80.3829 67 87C67 93.6171 61.6171 99 55 99ZM59.4191 83.9951C59.81 83.6039 59.81 82.972 59.4191 82.5809C59.2241 82.3859 58.9681 82.288 58.7119 82.288C58.4559 82.288 58.2 82.3859 58.0049 82.5809L55 85.5861L51.9951 82.5809C51.8 82.3859 51.5441 82.288 51.2881 82.288C51.0319 82.288 50.7759 82.3859 50.5809 82.5809C50.19 82.972 50.19 83.6039 50.5809 83.9951L53.5861 87L50.5809 90.0049C50.19 90.3961 50.19 91.028 50.5809 91.4191C50.972 91.81 51.6039 91.81 51.9951 91.4191L55 88.4139L58.0049 91.4191C58.3961 91.81 59.028 91.81 59.4191 91.4191C59.81 91.028 59.81 90.3961 59.4191 90.0049L56.4139 87L59.4191 83.9951Z" fill="#FDFEFE"/>
<path fill-rule="evenodd" clip-rule="evenodd" d="M143 90C139.686 90 137 92.6864 137 96V114H125V96C125 92.6864 122.314 90 119 90C115.686 90 113 92.6864 113 96V120C113 123.314 115.686 126 119 126H137V144C137 147.314 139.686 150 143 150C146.314 150 149 147.314 149 144V96C149 92.686 146.314 90 143 90ZM231.001 90C227.687 90 225.001 92.6864 225.001 96V114H213.001V96C213.001 92.6864 210.315 90 207.001 90C203.687 90 201.001 92.6864 201.001 96V120C201.001 123.314 203.687 126 207.001 126H225.001V144C225.001 147.314 227.687 150 231.001 150C234.315 150 237.001 147.314 237.001 144V96C237.001 92.686 234.315 90 231.001 90ZM163 90H187C190.314 90 193 92.686 193 96V144C193 147.314 190.314 150 187 150H163C159.687 150 157 147.314 157 144V96C157 92.6864 159.687 90 163 90ZM169 138H181V102H169V138Z" fill="#FF7C74"/>
<defs>
<filter id="filter0_d" x="10" y="0" width="329" height="270" filterUnits="userSpaceOnUse" color-interpolation-filters="sRGB">
<feFlood flood-opacity="0" result="BackgroundImageFix"/>
<feColorMatrix in="SourceAlpha" type="matrix" values="0 0 0 0 0 0 0 0 0 0 0 0 0 0 0 0 0 0 127 0"/>
<feOffset dy="15"/>
<feGaussianBlur stdDeviation="22.5"/>
<feColorMatrix type="matrix" values="0 0 0 0 0.719566 0 0 0 0 0.748166 0 0 0 0 0.795833 0 0 0 0.25 0"/>
<feBlend mode="normal" in2="BackgroundImageFix" result="effect1_dropShadow"/>
<feBlend mode="normal" in="SourceGraphic" in2="effect1_dropShadow" result="shape"/>
</filter>
<filter id="filter1_d" x="234" y="105" width="138.538" height="138.538" filterUnits="userSpaceOnUse" color-interpolation-filters="sRGB">
<feFlood flood-opacity="0" result="BackgroundImageFix"/>
<feColorMatrix in="SourceAlpha" type="matrix" values="0 0 0 0 0 0 0 0 0 0 0 0 0 0 0 0 0 0 127 0"/>
<feOffset dx="9" dy="20"/>
<feGaussianBlur stdDeviation="20"/>
<feColorMatrix type="matrix" values="0 0 0 0 0 0 0 0 0 0.351917 0 0 0 0 0.429167 0 0 0 0.25 0"/>
<feBlend mode="normal" in2="BackgroundImageFix" result="effect1_dropShadow"/>
<feBlend mode="normal" in="SourceGraphic" in2="effect1_dropShadow" result="shape"/>
</filter>
<filter id="filter2_d" x="0" y="43" width="128.357" height="128.357" filterUnits="userSpaceOnUse" color-interpolation-filters="sRGB">
<feFlood flood-opacity="0" result="BackgroundImageFix"/>
<feColorMatrix in="SourceAlpha" type="matrix" values="0 0 0 0 0 0 0 0 0 0 0 0 0 0 0 0 0 0 127 0"/>
<feOffset dx="9" dy="20"/>
<feGaussianBlur stdDeviation="20"/>
<feColorMatrix type="matrix" values="0 0 0 0 0 0 0 0 0 0.351917 0 0 0 0 0.429167 0 0 0 0.25 0"/>
<feBlend mode="normal" in2="BackgroundImageFix" result="effect1_dropShadow"/>
<feBlend mode="normal" in="SourceGraphic" in2="effect1_dropShadow" result="shape"/>
</filter>
</defs>
</svg>
